src/assets/release-fund.svg

<svg width="97" height="97" viewBox="0 0 97 97" fill="none" xmlns="http://www.w3.org/2000/svg">
<g clip-path="url(#clip0_1839_14587)">
<path d="M72.64 0.5H0.5V46.5H72.64V0.5Z" fill="#9498A2"/>
<path d="M84.5701 11H12.4301V57H84.5701V11Z" fill="#CED0D6"/>
<path d="M96.5 21.5H24.36V67.5H96.5V21.5Z" fill="#EBECEF"/>
<path d="M68.49 48.8C68.49 45.31 66.65 43.34 61.76 41.97C58.26 40.98 57.48 40.34 57.48 38.91C57.48 37.9 58.08 36.66 60.18 36.66C62.68 36.66 63.11 38.13 63.34 39.04H67.99C67.75 36.49 66.3 33.97 62.23 33.36V31.26H58.34V33.39C55.23 33.98 52.8 36.04 52.8 39.36C52.8 42.44 54.41 44.48 59.94 46.07C62.98 46.94 63.83 47.72 63.83 49.33C63.83 50.64 63.06 51.8 60.64 51.8C58.68 51.8 57.38 50.73 57 49.05H52.36C52.61 52.21 54.79 54.52 58.57 55.1V57.73H62.49V55.09C66.08 54.55 68.49 52.49 68.49 48.79V48.8Z" fill="#B1B4BC"/>
<path d="M76.27 96.5C87.3157 96.5 96.27 87.5457 96.27 76.5C96.27 65.4543 87.3157 56.5 76.27 56.5C65.2243 56.5 56.27 65.4543 56.27 76.5C56.27 87.5457 65.2243 96.5 76.27 96.5Z" fill="#FF444F"/>
<path d="M79.9647 74.8L74.8668 69.7021L77.271 67.2979L86.473 76.5L77.271 85.7021L74.8668 83.2979L79.9647 78.2H66.068V74.8H79.9647Z" fill="white"/>
</g>
<defs>
<clipPath id="clip0_1839_14587">
<rect width="96" height="96" fill="white" transform="translate(0.5 0.5)"/>
</clipPath>
</defs>
</svg>

<svg xmlns="http://www.w3.org/2000/svg" width="97" height="97" fill="none"><g clip-path="url(#a)"><path fill="#9498A2" d="M72.64.5H.5v46h72.14z"/><path fill="#CED0D6" d="M84.57 11H12.43v46h72.14z"/><path fill="#EBECEF" d="M96.5 21.5H24.36v46H96.5z"/><path fill="#B1B4BC" d="M68.49 48.8c0-3.49-1.84-5.46-6.73-6.83-3.5-.99-4.28-1.63-4.28-3.06 0-1.01.6-2.25 2.7-2.25 2.5 0 2.93 1.47 3.16 2.38h4.65c-.24-2.55-1.69-5.07-5.76-5.68v-2.1h-3.89v2.13c-3.11.59-5.54 2.65-5.54 5.97 0 3.08 1.61 5.12 7.14 6.71 3.04.87 3.89 1.65 3.89 3.26 0 1.31-.77 2.47-3.19 2.47-1.96 0-3.26-1.07-3.64-2.75h-4.64c.25 3.16 2.43 5.47 6.21 6.05v2.63h3.92v-2.64c3.59-.54 6-2.6 6-6.3z"/><path fill="#FF444F" d="M76.27 96.5c11.046 0 20-8.954 20-20s-8.954-20-20-20-20 8.954-20 20 8.954 20 20 20"/><path fill="#fff" d="m79.965 74.8-5.098-5.098 2.404-2.404 9.202 9.202-9.202 9.202-2.404-2.404 5.098-5.098H66.068v-3.4z"/></g><defs><clipPath id="a"><path fill="#fff" d="M.5.5h96v96H.5z"/></clipPath></defs></svg>
